svgs/asana.svg

<svg width="192" height="192" viewBox="0 0 192 192" xmlns="http://www.w3.org/2000/svg"><path d="M141 106c8.008 0 15.258 3.246 20.506 8.494C166.754 119.742 170 126.992 170 135c0 8.008-3.246 15.258-8.494 20.506C156.258 160.754 149.008 164 141 164c-8.008 0-15.258-3.246-20.506-8.494C115.246 150.258 112 143.008 112 135c0-8.008 3.246-15.258 8.494-20.506C125.742 109.246 132.992 106 141 106Zm-90 0c8.008 0 15.258 3.246 20.506 8.493C76.754 119.741 80 126.991 80 135c0 8.008-3.246 15.259-8.494 20.507C66.258 160.754 59.007 164 50.999 164c-8.008 0-15.257-3.246-20.505-8.494C25.246 150.258 22 143.007 22 134.999c0-8.009 3.246-15.258 8.493-20.506C35.741 109.246 42.991 106 51 106Zm44-78c8.008 0 15.258 3.246 20.506 8.494A28.901 28.901 0 0 1 124 56.998c0 8.009-3.246 15.26-8.494 20.508C110.258 82.754 103.009 86 95.001 86c-8.009 0-15.259-3.246-20.507-8.494C69.246 72.257 66 65.006 66 56.998c0-8.007 3.246-15.257 8.494-20.504C79.742 31.246 86.992 28 95.001 28Z" stroke="#000" stroke-width="12" fill="none"/></svg>

<svg id="vector" xmlns="http://www.w3.org/2000/svg" width="192" height="192" viewBox="0 0 192 192"><path fill="#00000000" d="M141,106C149.01,106 156.26,109.25 161.51,114.49C166.75,119.74 170,126.99 170,135C170,143.01 166.75,150.26 161.51,155.51C156.26,160.75 149.01,164 141,164C132.99,164 125.74,160.75 120.49,155.51C115.25,150.26 112,143.01 112,135C112,126.99 115.25,119.74 120.49,114.49C125.74,109.25 132.99,106 141,106ZM51,106C59.01,106 66.26,109.25 71.51,114.49C76.75,119.74 80,126.99 80,135C80,143.01 76.75,150.26 71.51,155.51C66.26,160.75 59.01,164 51,164C42.99,164 35.74,160.75 30.49,155.51C25.25,150.26 22,143.01 22,135C22,126.99 25.25,119.74 30.49,114.49C35.74,109.25 42.99,106 51,106ZM95,28C103.01,28 110.26,31.25 115.51,36.49C120.75,41.74 124,48.99 124,57C124,65.01 120.75,72.26 115.51,77.51C110.26,82.75 103.01,86 95,86C86.99,86 79.74,82.75 74.49,77.51C69.25,72.26 66,65.01 66,57C66,48.99 69.25,41.74 74.49,36.49C79.74,31.25 86.99,28 95,28L95,28Z" stroke-width="12" stroke="#000000" fill-rule="evenodd" id="path_0"/></svg>
